teeny/outline/refresh-alt.svg

<svg width="15" height="15" viewBox="0 0 15 15" fill="none" xmlns="http://www.w3.org/2000/svg">
<path d="M0.5 7.5C0.5 3.63401 3.63401 0.5 7.5 0.5C9.73096 0.5 11.7182 1.54367 13 3.1694M14.5 7.5C14.5 11.366 11.366 14.5 7.5 14.5C5.26904 14.5 3.28183 13.4563 2 11.8306M5 11.5H1.5V15M13.5 0V3.5L10 3.5" stroke="black"/>
</svg>

<svg viewBox="0 0 15 15" xmlns="http://www.w3.org/2000/svg"><path fill="none" stroke="#000" d="M.5 7.5c0-3.87 3.13-7 7-7 2.23 0 4.21 1.04 5.5 2.66m1.5 4.33c0 3.86-3.14 7-7 7 -2.24 0-4.22-1.05-5.5-2.67m3-.34H1.5v3.5m12-15v3.5H10"/></svg>
